X:1
T: Dundee Military Tatoo
C:
R:Reel
Q: 232
K:A
M:4/4
L:1/8
|:E|A4 A2 c2|ec ef e2 c2|a4 a2 e2|fe fa f2 e2|
A4 A2 c2|ec ef e2 c2|a2 c2 ed B=G|1A4 A2 E2:|2A4 A2 e2|
|:a4 a2 e2|fe fa f2 e2|a4 a2 e2|fe dc B2 e2|
a4 a2 e2|fe fa f2 e2|a2 c2 ed B=G|1A4 A2 e2:|2A4 A2||
